assets/kanban-1.svg

<svg xmlns="http://www.w3.org/2000/svg" fill="none" viewBox="0 0 27 28">
  <path fill="#2A2238" d="M22.75 1.75c.4641 0 .9092.18437 1.2374.51256.3282.32819.5126.77331.5126 1.23744v21c0 .4641-.1844.9092-.5126 1.2374-.3282.3282-.7733.5126-1.2374.5126H3.5c-.46413 0-.90925-.1844-1.23744-.5126C1.93437 25.4092 1.75 24.9641 1.75 24.5v-21c0-.46413.18437-.90925.51256-1.23744C2.59075 1.93437 3.03587 1.75 3.5 1.75h19.25ZM3.5 0c-.92826 0-1.8185.368749-2.47487 1.02513C.368749 1.6815 0 2.57174 0 3.5v21c0 .9283.368749 1.8185 1.02513 2.4749C1.6815 27.6313 2.57174 28 3.5 28h19.25c.9283 0 1.8185-.3687 2.4749-1.0251.6564-.6564 1.0251-1.5466 1.0251-2.4749v-21c0-.92826-.3687-1.8185-1.0251-2.47487C24.5685.368749 23.6783 0 22.75 0H3.5Z"/>
  <path fill="#2A2238" d="M10.5 5.25c0-.46413.1844-.90925.5126-1.23744.3282-.32819.7733-.51256 1.2374-.51256H14c.4641 0 .9092.18437 1.2374.51256.3282.32819.5126.77331.5126 1.23744v5.25c0 .4641-.1844.9092-.5126 1.2374-.3282.3282-.7733.5126-1.2374.5126h-1.75c-.4641 0-.9092-.1844-1.2374-.5126-.3282-.3282-.5126-.7733-.5126-1.2374V5.25Zm-7 0c0-.46413.18437-.90925.51256-1.23744C4.34075 3.68437 4.78587 3.5 5.25 3.5H7c.46413 0 .90925.18437 1.23744.51256.32819.32819.51256.77331.51256 1.23744V17.5c0 .4641-.18437.9092-.51256 1.2374-.32819.3282-.77331.5126-1.23744.5126H5.25c-.46413 0-.90925-.1844-1.23744-.5126C3.68437 18.4092 3.5 17.9641 3.5 17.5V5.25Zm14 0c0-.46413.1844-.90925.5126-1.23744.3282-.32819.7733-.51256 1.2374-.51256H21c.4641 0 .9092.18437 1.2374.51256.3282.32819.5126.77331.5126 1.23744v17.5c0 .4641-.1844.9092-.5126 1.2374-.3282.3282-.7733.5126-1.2374.5126h-1.75c-.4641 0-.9092-.1844-1.2374-.5126-.3282-.3282-.5126-.7733-.5126-1.2374V5.25Z"/>
</svg>

<svg width="27" height="28" viewBox="0 0 27 28" fill="none" xmlns="http://www.w3.org/2000/svg">
<path d="M22.75 1.75C23.2141 1.75 23.6592 1.93437 23.9874 2.26256C24.3156 2.59075 24.5 3.03587 24.5 3.5V24.5C24.5 24.9641 24.3156 25.4092 23.9874 25.7374C23.6592 26.0656 23.2141 26.25 22.75 26.25H3.5C3.03587 26.25 2.59075 26.0656 2.26256 25.7374C1.93437 25.4092 1.75 24.9641 1.75 24.5V3.5C1.75 3.03587 1.93437 2.59075 2.26256 2.26256C2.59075 1.93437 3.03587 1.75 3.5 1.75H22.75ZM3.5 0C2.57174 0 1.6815 0.368749 1.02513 1.02513C0.368749 1.6815 0 2.57174 0 3.5V24.5C0 25.4283 0.368749 26.3185 1.02513 26.9749C1.6815 27.6313 2.57174 28 3.5 28H22.75C23.6783 28 24.5685 27.6313 25.2249 26.9749C25.8813 26.3185 26.25 25.4283 26.25 24.5V3.5C26.25 2.57174 25.8813 1.6815 25.2249 1.02513C24.5685 0.368749 23.6783 0 22.75 0L3.5 0Z" fill="#2A2238"/>
<path d="M10.5 5.25C10.5 4.78587 10.6844 4.34075 11.0126 4.01256C11.3408 3.68437 11.7859 3.5 12.25 3.5H14C14.4641 3.5 14.9092 3.68437 15.2374 4.01256C15.5656 4.34075 15.75 4.78587 15.75 5.25V10.5C15.75 10.9641 15.5656 11.4092 15.2374 11.7374C14.9092 12.0656 14.4641 12.25 14 12.25H12.25C11.7859 12.25 11.3408 12.0656 11.0126 11.7374C10.6844 11.4092 10.5 10.9641 10.5 10.5V5.25ZM3.5 5.25C3.5 4.78587 3.68437 4.34075 4.01256 4.01256C4.34075 3.68437 4.78587 3.5 5.25 3.5H7C7.46413 3.5 7.90925 3.68437 8.23744 4.01256C8.56563 4.34075 8.75 4.78587 8.75 5.25V17.5C8.75 17.9641 8.56563 18.4092 8.23744 18.7374C7.90925 19.0656 7.46413 19.25 7 19.25H5.25C4.78587 19.25 4.34075 19.0656 4.01256 18.7374C3.68437 18.4092 3.5 17.9641 3.5 17.5V5.25ZM17.5 5.25C17.5 4.78587 17.6844 4.34075 18.0126 4.01256C18.3408 3.68437 18.7859 3.5 19.25 3.5H21C21.4641 3.5 21.9092 3.68437 22.2374 4.01256C22.5656 4.34075 22.75 4.78587 22.75 5.25V22.75C22.75 23.2141 22.5656 23.6592 22.2374 23.9874C21.9092 24.3156 21.4641 24.5 21 24.5H19.25C18.7859 24.5 18.3408 24.3156 18.0126 23.9874C17.6844 23.6592 17.5 23.2141 17.5 22.75V5.25Z" fill="#2A2238"/>
</svg>
